src/assets/entertainment.svg

<svg width="98" height="98" viewBox="0 0 98 98" fill="none" xmlns="http://www.w3.org/2000/svg">
<g clip-path="url(#clip0_433_383)">
<path d="M94.5294 25.7392C93.4097 37.7228 92.2901 49.6999 91.1704 61.6708C90.0991 73.2005 89.0393 84.734 87.991 96.2714C87.9107 97.151 88.0714 98.0192 86.6443 98.0039C79.7003 97.9236 72.7563 97.935 65.8123 97.9121C65.1504 97.216 65.3379 96.3823 65.4297 95.56C67.5875 77.1678 69.7032 58.7679 71.9337 40.3834C72.2092 38.1345 71.6393 36.1993 69.8947 34.7154C68.7278 33.7248 68.1499 32.5622 68.4101 31.0247C68.4544 30.643 68.4466 30.257 68.3871 29.8774C68.0772 26.8674 67.4575 26.3052 64.4312 26.332C63.9857 26.3467 63.5398 26.3327 63.0961 26.2899C63.0103 26.2724 62.9292 26.2368 62.8583 26.1854C62.7873 26.1341 62.7282 26.0682 62.6847 25.9922C62.6413 25.9162 62.6145 25.8318 62.6062 25.7446C62.598 25.6575 62.6085 25.5696 62.6369 25.4868C64.1022 24.1826 65.8659 24.959 67.4919 24.7792C75.8285 24.6301 84.1651 24.7104 92.4978 24.7487C93.2821 24.7563 94.2539 24.6186 94.5294 25.7392Z" fill="#2ECC82"/>
<path d="M62.6861 25.7391L63.0994 26.1674C64.8172 27.8732 65.1768 30.3515 64.0902 32.9598C63.4207 33.545 62.6441 33.2314 61.921 33.1625C58.799 32.868 56.3428 33.7859 54.9617 36.8073C54.7819 37.1898 54.5792 37.6028 54.0588 37.6831C53.8814 37.6094 53.7216 37.4991 53.5898 37.3593C53.4579 37.2196 53.357 37.0537 53.2937 36.8723C52.0579 34.0919 49.881 32.9484 46.9006 33.1281C44.1919 33.2887 42.4587 34.7191 41.4601 37.1668C41.2956 37.5722 41.1657 38.0273 40.6032 38.0579C39.9911 37.7214 39.838 37.0636 39.5472 36.5281C38.3994 34.3979 36.7009 33.2084 34.2179 33.1319C31.5933 33.0478 29.7032 34.1493 28.4062 36.3866C28.0963 36.9182 27.9663 37.6143 27.2164 37.7749C26.5124 37.6984 26.348 37.0942 26.0879 36.6046C24.6685 33.9274 22.3996 32.8642 19.446 33.1625C16.787 33.4302 15.2643 35.0748 14.369 37.4498C14.2808 37.8225 14.09 38.163 13.8181 38.4327C13.053 38.4327 13.0072 37.7482 12.7853 37.2624C11.3506 34.134 9.53706 33.0554 6.05933 33.1625C5.32859 33.1893 4.55949 33.5717 3.86318 33.0134C2.35961 27.3224 6.12439 22.079 11.9168 22.1478C13.3132 22.1478 13.5504 21.6621 13.7494 20.706C14.8551 15.3822 18.1643 14.059 21.5426 13.6459C22.7324 13.5006 24.041 13.9786 25.2347 14.3573C26.0573 14.6212 26.6119 14.5102 27.0098 13.8104C29.4124 9.60336 36.9227 9.0182 40.167 13.3438C41.0317 14.4911 41.7738 14.4911 43.1435 14.0819C46.7398 12.9881 49.9651 13.9442 52.2262 17.0344C53.1636 18.3195 54.1889 18.591 55.6083 18.5222C56.4576 18.4801 57.3949 18.2124 58.1831 18.8473C57.4753 19.6122 56.5342 19.3177 55.6772 19.3942C55.0153 19.4516 54.3573 19.4554 54.4071 20.3924C54.4492 21.2108 54.8125 21.7042 55.6962 21.6889C57.7476 21.6171 59.7545 22.2972 61.3394 23.6012C62.051 24.1443 62.69 24.7371 62.6861 25.7391Z" fill="#DCDCDC"/>
<path d="M3.87241 32.9981C9.11387 31.671 12.2166 33.35 13.6934 38.3142C14.3323 38.6967 14.3746 39.3621 14.3975 39.9894C14.5735 44.9957 15.0517 49.9867 15.1894 54.993C15.2544 57.3336 15.8244 59.6551 15.4877 62.0111C13.6245 66.1836 13.9575 70.2262 16.2071 74.1616C16.517 77.2939 16.9301 80.4224 16.6355 83.5815C16.4519 84.9545 15.3768 85.3713 14.275 85.7117C11.4476 86.5837 8.60881 87.4098 5.7394 88.125C5.11578 83.0919 4.48074 78.0626 3.88007 73.0296C2.9083 64.8986 1.94927 56.7676 1.003 48.6366C0.696929 46.0551 0.356545 43.4735 0.0734298 40.8881C-0.305333 37.4766 0.849964 34.7803 3.87241 32.9981Z" fill="#2ECC82"/>
<path d="M60.8503 97.9159H50.5969C50.4085 97.7424 50.2668 97.5243 50.1846 97.2817C50.1024 97.0392 50.0822 96.7799 50.1263 96.5276C50.3826 91.8311 50.5358 87.1307 50.9413 82.438C51.1747 79.7187 50.9183 76.9612 51.519 74.2688C51.5255 73.7604 51.6667 73.2629 51.9283 72.8269C53.7494 69.8476 53.8068 66.7421 52.6055 63.5448C52.5133 63.2582 52.495 62.953 52.552 62.6575C52.6019 62.4695 52.6963 62.2963 52.8274 62.1526C57.0588 58.4466 60.5787 54.1211 63.9454 49.6349C64.3621 48.996 64.8305 48.3922 65.3458 47.8297C65.9349 47.2637 66.524 46.9921 66.9755 47.9942C67.3581 50.8167 66.6159 53.5551 66.2983 56.3087C64.7986 69.293 63.2377 82.2697 61.7495 95.254C61.6423 96.2025 61.5849 97.1739 60.8503 97.9159Z" fill="#126F43"/>
<path d="M60.8516 97.9159C61.9649 88.5458 63.1011 79.1757 64.18 69.8017C65.0331 62.3783 65.8137 54.951 66.6248 47.5238C65.9705 45.5465 66.6249 43.5998 66.9386 41.7028C67.4513 38.5437 66.9922 35.8972 64.2605 33.9275C64.093 33.8312 63.9583 33.6866 63.8743 33.5126C63.7904 33.3386 63.7609 33.1433 63.7897 32.9523C64.509 30.5925 64.1073 28.3628 63.0935 26.1675C64.597 25.4026 66.4259 25.2764 67.6081 26.1025C69.0849 27.1351 69.2225 29.2578 69.0159 30.9865C68.8514 32.3518 68.9661 33.2506 70.1101 34.0805C73.5534 36.5818 72.5779 40.1195 72.1876 43.4927C71.7323 47.3861 71.2425 51.2718 70.7796 55.1614C70.3473 58.8023 69.9342 62.428 69.4981 66.0843C69.0441 69.9088 68.5785 73.7333 68.1015 77.5579C67.4894 82.5757 66.8583 87.5896 66.2691 92.6113C66.0625 94.3706 65.959 96.1413 65.806 97.9044L60.8516 97.9159Z" fill="#4D4D4D"/>
<path d="M40.5822 97.9159H27.1916C26.9736 97.6849 26.8071 97.4104 26.7029 97.1105C26.5987 96.8106 26.5592 96.492 26.587 96.1757C26.5335 91.446 26.5335 86.7138 26.587 81.979C26.5782 81.4711 26.7036 80.9697 26.9506 80.5257C27.5895 79.7608 28.4427 79.9252 29.2461 80.0744C32.2946 80.6557 35.4255 80.6557 38.474 80.0744C39.2698 79.9214 40.1192 79.7608 40.7964 80.4569C41.2211 81.1376 41.2172 81.9064 41.2211 82.6674C41.2211 86.9739 41.244 91.2803 41.2211 95.5906C41.2057 96.4167 41.2402 97.2657 40.5822 97.9159Z" fill="#126F43"/>
<path d="M94.5303 25.7391C93.8608 25.1846 93.0651 25.4637 92.3344 25.4561C84.0067 25.3975 75.6803 25.3579 67.3552 25.3375C65.3121 22.8554 63.0089 20.7098 59.9597 19.4975C59.8413 19.4483 59.7472 19.3545 59.6978 19.2363C59.6483 19.1181 59.6476 18.9851 59.6957 18.8664C62.7564 18.8664 65.8478 18.8664 68.9238 18.8396C69.5895 18.8396 70.3279 19.0538 70.8367 18.3883C73.0864 18.3157 75.3628 17.83 77.5474 18.8167C83.7262 18.8167 89.9088 18.8779 96.0876 18.8167C97.484 18.8167 98.077 19.1685 97.9469 20.6333C97.8283 21.9643 98.1879 23.3908 97.8206 24.6223C97.3653 26.198 95.4638 24.7944 94.5303 25.7391Z" fill="#DCDCDC"/>
<path d="M40.582 97.9159C40.582 92.0873 40.582 86.26 40.582 80.4339C40.7542 79.7608 41.3472 79.6155 41.8828 79.4816C45.2304 78.6555 48.0233 76.8656 50.5254 74.5556C50.9386 74.1731 51.3404 73.7333 51.9984 73.8366C51.5342 81.8656 51.0699 89.8971 50.6057 97.9312L40.582 97.9159Z" fill="#515151"/>
<path d="M27.1981 80.4492C27.1981 86.2701 27.1981 92.0923 27.1981 97.9158H17.0326C16.7844 97.7661 16.5849 97.5477 16.4579 97.2872C16.331 97.0266 16.2822 96.7349 16.3173 96.4472C16.4167 93.0701 15.77 89.7275 15.8848 86.3543C15.8656 85.7814 15.9755 85.2115 16.2063 84.6868C16.344 84.0557 16.8223 83.7765 17.3541 83.5815C20.3038 82.5182 23.1388 81.1873 26.0503 80.0361C26.2611 79.9902 26.4806 80.0045 26.6836 80.0776C26.8866 80.1506 27.0649 80.2794 27.1981 80.4492Z" fill="#515151"/>
<path d="M77.5583 18.8168C75.3354 18.4726 73.0399 19.1992 70.8477 18.3884C70.8477 12.8735 70.9127 7.35464 70.8477 1.83583C70.8477 0.558433 71.104 -0.0190679 72.5043 0.107142C74.1341 0.252474 76.2613 -0.390053 77.2866 0.424574C78.3809 1.29274 77.6309 3.50715 77.6386 5.12875C77.6539 9.69143 77.5965 14.2541 77.5583 18.8168Z" fill="#4C4C4C"/>
<path d="M16.4393 84.2163C16.6306 88.7854 16.8245 93.3531 17.0209 97.9196C14.052 97.9196 11.0831 97.9196 8.11805 98C7.02002 98.0344 6.66804 97.5372 6.58769 96.5887C6.31606 93.7662 6.0253 90.9475 5.74219 88.125C5.83401 87.3601 6.40023 87.3907 6.97794 87.2377C9.54511 86.5455 12.0931 85.7653 14.6297 85.0156C15.3031 84.8168 16.0185 84.6638 16.1294 83.7765C16.4393 83.7956 16.6498 83.8568 16.4393 84.2163Z" fill="#126F43"/>
<path d="M59.6955 18.8665C62.5419 20.205 65.3501 21.601 67.0143 24.4771C67.1498 24.7547 67.2637 25.0424 67.3549 25.3376C65.8245 25.6129 64.1908 24.9781 62.6872 25.7391C60.9044 23.1997 58.4367 21.9146 55.3684 22.2206C53.0193 22.4462 54.1097 20.5684 53.773 19.7346C53.3368 18.6408 54.5381 18.9085 55.1388 18.8741C56.1526 18.8167 57.1741 18.8435 58.1995 18.832L59.6955 18.8665Z" fill="#C5C5C5"/>
<path d="M15.0248 62.2941L13.6934 38.3142C14.3858 35.0328 16.406 32.9293 19.1798 32.6003C23.0822 32.1376 25.3241 33.5718 27.1759 37.7138C27.3898 37.9073 27.5554 38.1482 27.6597 38.4171C27.764 38.686 27.804 38.9756 27.7765 39.2627C27.7956 44.2346 27.9869 49.2065 27.6808 54.1554C27.5997 54.5261 27.4115 54.8647 27.1394 55.1292C26.8673 55.3938 26.5233 55.5725 26.1505 55.6432C22.2651 56.6368 18.7727 58.7851 16.1344 61.8045C15.8513 62.1067 15.5757 62.558 15.0248 62.2941Z" fill="#515151"/>
<path d="M40.6429 38.0541C42.0278 34.0537 44.0059 32.4818 47.564 32.5506C50.9614 32.6156 52.8399 34.0804 54.0107 37.6028C54.9097 38.7961 54.5884 40.1615 54.4889 41.4656C54.0336 47.539 53.7236 53.62 53.4405 59.7049C53.3946 60.6457 53.5401 61.6171 52.7672 62.382L52.641 62.3094C52.0288 62.4241 51.7266 61.9728 51.4052 61.598C48.884 58.6799 45.6319 56.9359 42.0318 55.7579C41.1633 55.4749 40.3408 55.1842 40.1189 54.1516C39.7937 49.348 40.0002 44.5444 40.0002 39.7446C39.9887 39.1288 40.0651 38.4825 40.6429 38.0541Z" fill="#515151"/>
<path d="M52.7852 62.3936C52.8081 55.6892 53.4968 49.0077 53.7646 42.33C53.8296 40.7543 53.9406 39.1786 54.0286 37.6029C56.2705 32.8911 58.8148 31.6825 63.8152 32.9523C67.1896 34.9754 68.3029 37.8859 67.4459 41.7105C67.0212 43.6227 66.9027 45.5809 66.6426 47.5238C64.5804 48.6099 63.8611 50.8435 62.4532 52.4957C59.7521 55.6624 57.1161 58.8788 54.0898 61.7549C53.6996 62.1067 53.3399 62.4624 52.7852 62.3936Z" fill="#2ECC82"/>
<path d="M40.6428 38.0542L40.6047 54.7368C40.1188 55.3105 39.4568 55.2531 38.8408 55.1422C35.5783 54.5666 32.2403 54.5666 28.9778 55.1422C28.358 55.2531 27.7 55.3105 27.2064 54.7598C27.2064 49.0816 27.1962 43.4034 27.1758 37.7252C28.3006 35.1246 29.8539 32.9446 32.9452 32.6386C36.9816 32.2217 39.3228 33.9237 40.6428 38.0542Z" fill="#2ECC82"/>
<path d="M22.2207 24.8289C22.2207 21.3868 25.4078 18.507 28.8702 18.8473C29.6775 18.9277 30.2092 19.1801 30.2437 20.0635C30.2781 20.947 30.2934 21.7157 29.1419 21.9223C26.9343 22.3047 25.488 23.475 25.2431 25.873C25.1245 27.0395 24.1413 26.9401 23.3302 26.8559C22.0217 26.7259 22.259 25.6856 22.2207 24.8289Z" fill="#C6C6C6"/>
<path d="M27.2055 54.7445C31.6333 53.946 36.1683 53.946 40.5961 54.7445C42.6927 55.5591 44.8733 56.1595 46.8589 57.2801C49.08 58.5918 51.0388 60.3034 52.636 62.3285C52.6858 62.623 52.7355 62.9137 52.789 63.2082C51.3352 65.4302 49.1047 66.8415 47.0961 68.4325C41.8555 72.5688 36.2045 76.1572 30.2316 79.1412C28.9232 79.8028 27.5535 80.3574 26.0461 80.2235C24.1676 80.6481 22.756 79.4816 21.26 78.732C19.0372 77.6152 16.9598 76.2651 15.7661 73.9398C13.1837 70.2147 12.9005 66.3405 15.0009 62.3132C18.1152 58.2133 22.4002 56.0563 27.2055 54.7445Z" fill="#DCDCDC"/>
<path d="M15.7734 73.9207C18.7155 76.7623 21.8719 79.2482 26.046 80.0399C26.0767 80.048 26.1053 80.0628 26.1297 80.0833C26.154 80.1037 26.1735 80.1294 26.1866 80.1583C26.1998 80.1872 26.2064 80.2187 26.2059 80.2505C26.2054 80.2823 26.1979 80.3136 26.1838 80.3421C23.0696 81.9675 19.9055 83.4705 16.4469 84.2354L16.1409 83.7994L15.7734 73.9207Z" fill="#515151"/>
<path d="M26.1847 80.323C26.1427 80.2197 26.0966 80.1203 26.0469 80.0208C29.3027 79.6384 31.866 77.6573 34.6245 76.1963C41.2394 72.6624 47.0203 67.9315 52.7974 63.2158C54.5726 66.1951 54.3278 69.1936 52.874 72.1958C52.6024 72.758 52.2848 73.3011 51.9902 73.8519C48.9021 77.1072 44.9369 79.3986 40.5738 80.4492C36.1516 81.3078 31.6055 81.3078 27.1832 80.4492L26.1847 80.323Z" fill="#C5C5C5"/>
</g>
<defs>
<clipPath id="clip0_433_383">
<rect width="98" height="98" fill="white"/>
</clipPath>
</defs>
</svg>

<svg width="98" height="98" fill="none" xmlns="http://www.w3.org/2000/svg"><g clip-path="url(#a)"><path d="m94.53 25.74-3.36 35.93c-1.07 11.53-2.13 23.064-3.179 34.601-.08.88.08 1.748-1.347 1.733-6.944-.08-13.888-.069-20.832-.092-.662-.696-.474-1.53-.382-2.352 2.157-18.392 4.273-36.792 6.504-55.177.275-2.248-.295-4.184-2.04-5.668-1.166-.99-1.744-2.153-1.484-3.69a4.247 4.247 0 0 0-.023-1.148c-.31-3.01-.93-3.572-3.956-3.545-.445.015-.891 0-1.335-.042a.614.614 0 0 1-.46-.803c1.466-1.304 3.23-.528 4.856-.708 8.337-.149 16.673-.069 25.006-.03.784.007 1.756-.13 2.031.99Z" fill="#2ECC82"/><path d="m62.686 25.74.413.427c1.718 1.706 2.078 4.184.991 6.793-.67.585-1.446.271-2.169.203-3.122-.295-5.578.623-6.96 3.644-.18.383-.382.796-.902.876a1.363 1.363 0 0 1-.765-.81c-1.236-2.781-3.413-3.925-6.393-3.745-2.71.16-4.442 1.591-5.44 4.039-.165.405-.295.86-.858.89-.612-.336-.765-.993-1.056-1.529-1.148-2.13-2.846-3.32-5.33-3.396-2.624-.084-4.514 1.017-5.81 3.255-.31.531-.44 1.227-1.19 1.388-.705-.077-.869-.68-1.13-1.17-1.418-2.678-3.687-3.74-6.641-3.442-2.659.267-4.182 1.912-5.077 4.287a2.049 2.049 0 0 1-.55.983c-.766 0-.812-.685-1.034-1.17-1.434-3.129-3.248-4.208-6.726-4.1-.73.026-1.5.409-2.196-.15-1.503-5.69 2.261-10.934 8.054-10.865 1.396 0 1.633-.486 1.832-1.442 1.106-5.324 4.415-6.647 7.794-7.06 1.19-.145 2.498.333 3.692.711.822.264 1.377.153 1.775-.547 2.402-4.207 9.913-4.792 13.157-.466.865 1.147 1.607 1.147 2.977.738 3.596-1.094 6.821-.138 9.082 2.952.938 1.286 1.963 1.557 3.382 1.488.85-.042 1.787-.31 2.575.325-.708.765-1.649.47-2.506.547-.662.058-1.32.061-1.27.998.042.819.406 1.312 1.29 1.297a8.419 8.419 0 0 1 5.642 1.912c.712.543 1.351 1.136 1.347 2.138Z" fill="#DCDCDC"/><path d="M3.872 32.998c5.242-1.327 8.345.352 9.821 5.316.64.383.682 1.048.705 1.675.175 5.007.654 9.998.791 15.004.065 2.34.635 4.662.299 7.018-1.864 4.173-1.53 8.215.72 12.15.309 3.133.722 6.261.428 9.42-.184 1.373-1.26 1.79-2.361 2.13-2.827.873-5.666 1.699-8.536 2.414-.623-5.033-1.258-10.062-1.859-15.095a8099.7 8099.7 0 0 1-2.877-24.393c-.306-2.582-.646-5.163-.93-7.749-.378-3.411.777-6.108 3.8-7.89Z" fill="#2ECC82"/><path d="M60.85 97.916H50.597a1.53 1.53 0 0 1-.47-1.388c.256-4.697.409-9.397.814-14.09.234-2.72-.023-5.477.578-8.17a2.874 2.874 0 0 1 .41-1.441c1.82-2.98 1.878-6.085.676-9.282a1.79 1.79 0 0 1-.053-.888 1.21 1.21 0 0 1 .275-.504c4.232-3.706 7.752-8.032 11.118-12.518.417-.639.886-1.243 1.4-1.805.59-.566 1.179-.838 1.63.164.383 2.823-.36 5.561-.677 8.315-1.5 12.984-3.06 25.96-4.549 38.945-.107.948-.164 1.92-.899 2.662Z" fill="#126F43"/><path d="M60.852 97.916c1.113-9.37 2.25-18.74 3.328-28.114.853-7.424 1.634-14.851 2.445-22.278-.654-1.977 0-3.924.314-5.821.512-3.16.053-5.806-2.678-7.776a.96.96 0 0 1-.471-.975c.719-2.36.317-4.59-.697-6.784 1.504-.765 3.333-.892 4.515-.066 1.477 1.033 1.614 3.156 1.408 4.884-.165 1.366-.05 2.265 1.094 3.095 3.443 2.5 2.468 6.038 2.078 9.412-.456 3.893-.945 7.779-1.408 11.668-.433 3.641-.846 7.267-1.282 10.923-.454 3.825-.92 7.65-1.397 11.474-.612 5.018-1.243 10.032-1.832 15.053-.207 1.76-.31 3.53-.463 5.293l-4.954.012Z" fill="#4D4D4D"/><path d="M40.582 97.916h-13.39a2.249 2.249 0 0 1-.605-1.74 627.89 627.89 0 0 1 0-14.197 2.887 2.887 0 0 1 .364-1.453c.639-.765 1.492-.6 2.295-.452 3.049.582 6.18.582 9.228 0 .796-.153 1.645-.313 2.322.383.425.68.421 1.45.425 2.21 0 4.307.023 8.613 0 12.924-.015.826.02 1.675-.639 2.325Z" fill="#126F43"/><path d="M94.53 25.74c-.67-.555-1.465-.276-2.196-.284-8.327-.058-16.654-.098-24.979-.119-2.043-2.482-4.346-4.627-7.395-5.84a.486.486 0 0 1-.264-.63c3.06 0 6.152 0 9.228-.027.665 0 1.404.214 1.913-.452 2.25-.072 4.526-.558 6.71.429 6.18 0 12.362.06 18.54 0 1.397 0 1.99.352 1.86 1.816-.119 1.331.24 2.758-.126 3.99-.456 1.575-2.357.171-3.29 1.116Z" fill="#DCDCDC"/><path d="M40.582 97.916V80.434c.172-.673.765-.819 1.3-.952 3.348-.826 6.141-2.616 8.643-4.926.414-.383.815-.823 1.473-.72l-1.392 24.095-10.024-.015ZM27.198 80.45v17.466H17.033a1.503 1.503 0 0 1-.716-1.469c.1-3.377-.547-6.72-.432-10.093-.02-.573.09-1.142.321-1.667.138-.631.616-.91 1.148-1.105 2.95-1.064 5.785-2.395 8.696-3.546a1.148 1.148 0 0 1 1.148.413Z" fill="#515151"/><path d="M77.558 18.817c-2.223-.344-4.518.382-6.71-.429 0-5.515.065-11.033 0-16.552 0-1.278.256-1.855 1.656-1.729 1.63.145 3.757-.497 4.783.318 1.094.868.344 3.082.352 4.704.015 4.562-.042 9.125-.08 13.688Z" fill="#4C4C4C"/><path d="M16.44 84.216c.19 4.57.384 9.137.58 13.704-2.968 0-5.937 0-8.902.08-1.098.034-1.45-.463-1.53-1.411-.272-2.823-.563-5.641-.846-8.464.092-.765.658-.734 1.236-.887 2.567-.692 5.115-1.473 7.652-2.222.673-.2 1.388-.352 1.5-1.24.31.02.52.08.31.44Z" fill="#126F43"/><path d="M59.696 18.866c2.846 1.339 5.654 2.735 7.318 5.611.136.278.25.565.34.86-1.53.276-3.163-.359-4.667.402-1.783-2.54-4.25-3.824-7.319-3.518-2.349.225-1.258-1.653-1.595-2.486-.436-1.094.765-.826 1.366-.86 1.014-.058 2.035-.032 3.06-.043l1.497.034Z" fill="#C5C5C5"/><path d="m15.025 62.294-1.332-23.98c.693-3.281 2.713-5.385 5.487-5.714 3.902-.462 6.144.972 7.996 5.114a1.85 1.85 0 0 1 .6 1.549c.02 4.972.21 9.944-.095 14.892a1.934 1.934 0 0 1-1.53 1.488 19.823 19.823 0 0 0-10.017 6.161c-.283.303-.558.754-1.11.49Zm25.618-24.24c1.385-4 3.363-5.572 6.921-5.503 3.397.065 5.276 1.53 6.447 5.052.899 1.193.577 2.558.478 3.863-.455 6.073-.765 12.154-1.048 18.239-.046.94.1 1.912-.674 2.677l-.126-.073c-.612.115-.914-.336-1.236-.711-2.521-2.918-5.773-4.662-9.373-5.84-.869-.283-1.691-.574-1.913-1.606-.325-4.804-.119-9.608-.119-14.407-.011-.616.065-1.262.643-1.69Z" fill="#515151"/><path d="M52.785 62.394c.023-6.705.712-13.386.98-20.064.065-1.576.176-3.151.264-4.727 2.241-4.712 4.786-5.92 9.786-4.65 3.375 2.022 4.488 4.933 3.63 8.758-.424 1.912-.542 3.87-.802 5.813-2.063 1.086-2.782 3.32-4.19 4.972-2.7 3.166-5.337 6.383-8.363 9.259-.39.352-.75.707-1.305.639Zm-12.142-24.34-.038 16.683c-.486.573-1.148.516-1.764.405a28.383 28.383 0 0 0-9.863 0c-.62.111-1.278.168-1.772-.382 0-5.678-.01-11.357-.03-17.035 1.125-2.6 2.678-4.78 5.77-5.086 4.036-.417 6.377 1.285 7.697 5.415Z" fill="#2ECC82"/><path d="M22.22 24.829c0-3.442 3.188-6.322 6.65-5.982.807.08 1.34.333 1.374 1.216.034.884.05 1.653-1.102 1.86-2.208.382-3.654 1.552-3.899 3.95-.118 1.166-1.102 1.067-1.913.983-1.308-.13-1.071-1.17-1.11-2.027Z" fill="#C6C6C6"/><path d="M27.206 54.745a37.725 37.725 0 0 1 13.39 0c2.097.814 4.277 1.415 6.263 2.535a20.88 20.88 0 0 1 5.777 5.048c.05.295.1.586.153.88-1.454 2.222-3.684 3.633-5.693 5.225A97.692 97.692 0 0 1 30.232 79.14c-1.309.662-2.678 1.216-4.186 1.082-1.878.425-3.29-.741-4.786-1.491-2.223-1.117-4.3-2.467-5.494-4.792-2.582-3.725-2.866-7.6-.765-11.627 3.114-4.1 7.4-6.257 12.205-7.569Z" fill="#DCDCDC"/><path d="M15.773 73.92c2.942 2.842 6.099 5.328 10.273 6.12a.216.216 0 0 1 .16.21.214.214 0 0 1-.022.092c-3.114 1.626-6.279 3.129-9.737 3.893l-.306-.436-.368-9.878Z" fill="#515151"/><path d="M26.185 80.323a4.286 4.286 0 0 0-.138-.302c3.256-.383 5.819-2.364 8.577-3.825 6.615-3.534 12.396-8.264 18.173-12.98 1.776 2.98 1.53 5.978.077 8.98-.272.562-.59 1.105-.884 1.656a23.232 23.232 0 0 1-11.416 6.597 35.128 35.128 0 0 1-13.39 0l-1-.126Z" fill="#C5C5C5"/></g><defs><clipPath id="a"><path fill="#fff" d="M0 0h98v98H0z"/></clipPath></defs></svg>
